{
  "compressionlevel": -1,
  "height": 600,
  "infinite": false,
  "layers": [
    {
      "draworder": "topdown",
      "id": 1,
      "name": "hotspots",
      "objects": [
        {
          "height": 180,
          "id": 1,
          "name": "armazenamento_incorreto",
          "properties": [
            {
              "name": "successMessage",
              "type": "string",
              "value": "Correto! Agrotoxicos devem ser guardados em local adequado e sem vazamentos."
            }
          ],
          "rotation": 0,
          "type": "",
          "visible": true,
          "width": 230,
          "x": 180,
          "y": 204
        },
        {
          "height": 246,
          "id": 2,
          "name": "animais_proximos",
          "properties": [
            {
              "name": "successMessage",
              "type": "string",
              "value": "Muito bem! Animais precisam ficar longe da area de aplicacao de agrotoxicos."
            }
          ],
          "rotation": 0,
          "type": "",
          "visible": true,
          "width": 290,
          "x": 710,
          "y": 174
        },
        {
          "height": 216,
          "id": 3,
          "name": "alimentacao_area",
          "properties": [
            {
              "name": "successMessage",
              "type": "string",
              "value": "Correto! Nao se deve comer nem beber na area de aplicacao."
            }
          ],
          "rotation": 0,
          "type": "",
          "visible": true,
          "width": 150,
          "x": 80,
          "y": 228
        },
        {
          "height": 156,
          "id": 4,
          "name": "descarte_incorreto",
          "properties": [
            {
              "name": "successMessage",
              "type": "string",
              "value": "Muito bem! Embalagens devem passar por triplice lavagem e devolucao correta."
            }
          ],
          "rotation": 0,
          "type": "",
          "visible": true,
          "width": 350,
          "x": 210,
          "y": 426
        },
        {
          "height": 342,
          "id": 5,
          "name": "epi_incompleto",
          "properties": [
            {
              "name": "successMessage",
              "type": "string",
              "value": "Correto! O aplicador deve usar EPI completo durante toda a atividade."
            }
          ],
          "rotation": 0,
          "type": "",
          "visible": true,
          "width": 200,
          "x": 470,
          "y": 150
        }
      ],
      "opacity": 1,
      "type": "objectgroup",
      "visible": true,
      "x": 0,
      "y": 0
    }
  ],
  "nextlayerid": 2,
  "nextobjectid": 6,
  "orientation": "orthogonal",
  "renderorder": "right-down",
  "tiledversion": "1.10.2",
  "tileheight": 1,
  "tilesets": [],
  "tilewidth": 1,
  "type": "map",
  "version": "1.10",
  "width": 1000
}
